static/img/platform/security/eol.svg

<svg xmlns="http://www.w3.org/2000/svg" xml:space="preserve" style="fill-rule:evenodd;clip-rule:evenodd;stroke-linejoin:round;stroke-miterlimit:2" viewBox="0 0 32 32"><path d="M32 16c0-8.831-7.169-16-16-16S0 7.169 0 16s7.169 16 16 16 16-7.169 16-16" style="fill:#fbed53;fill-opacity:.1"/><path d="m23.842 12.54-4.383-4.382A.53.53 0 0 0 19.093 8h-6.186a.54.54 0 0 0-.377.158L8.155 12.54a.54.54 0 0 0-.155.366v6.185a.6.6 0 0 0 .037.213.6.6 0 0 0 .118.18l4.375 4.358c.1.101.236.157.377.158h6.186a.53.53 0 0 0 .366-.158l4.383-4.358a.53.53 0 0 0 .158-.393v-6.185a.53.53 0 0 0-.158-.366m-1.178 5.964a.6.6 0 0 1-.179.446l-3.541 3.533a.62.62 0 0 1-.441.182h-5.008a.6.6 0 0 1-.446-.182L9.515 18.95a.6.6 0 0 1-.182-.438v-5.016a.62.62 0 0 1 .182-.44l3.534-3.542a.61.61 0 0 1 .446-.179h5.267l3.723 3.721c.115.118.18.276.179.44zm-6.677.163a.66.66 0 0 0-.619.411.66.66 0 0 0 .144.728.666.666 0 0 0 1.14-.474.665.665 0 0 0-.652-.665zm0-6.677a.68.68 0 0 0-.472.194.66.66 0 0 0-.196.471v4.676c0 .177.07.347.196.472a.664.664 0 0 0 .944 0 .67.67 0 0 0 .195-.472v-4.665a.662.662 0 0 0-.654-.66z" style="fill:#fbd153"/></svg>

<?xml version="1.0" encoding="UTF-8" standalone="no"?>
<!DOCTYPE svg PUBLIC "-//W3C//DTD SVG 1.1//EN" "http://www.w3.org/Graphics/SVG/1.1/DTD/svg11.dtd">
<svg width="100%" height="100%" viewBox="0 0 32 32" version="1.1" xmlns="http://www.w3.org/2000/svg" xmlns:xlink="http://www.w3.org/1999/xlink" xml:space="preserve" xmlns:serif="http://www.serif.com/" style="fill-rule:evenodd;clip-rule:evenodd;stroke-linejoin:round;stroke-miterlimit:2;">
    <path d="M32,16C32,7.169 24.831,0 16,0C7.169,0 0,7.169 0,16C0,24.831 7.169,32 16,32C24.831,32 32,24.831 32,16Z" style="fill:rgb(251,237,83);fill-opacity:0.1;"/>
    <path d="M23.842,12.54L19.459,8.158C19.362,8.06 19.231,8.003 19.093,8L12.907,8C12.766,8.001 12.63,8.057 12.53,8.158L8.155,12.54C8.058,12.638 8.003,12.769 8,12.906L8,19.091C7.998,19.164 8.011,19.236 8.037,19.304C8.064,19.371 8.104,19.432 8.155,19.484L12.53,23.842C12.63,23.943 12.766,23.999 12.907,24L19.093,24C19.231,23.997 19.362,23.94 19.459,23.842L23.842,19.484C23.894,19.433 23.935,19.371 23.962,19.304C23.989,19.236 24.002,19.164 24,19.091L24,12.906C23.997,12.768 23.94,12.637 23.842,12.54ZM22.664,18.504C22.666,18.586 22.651,18.668 22.62,18.745C22.589,18.821 22.543,18.891 22.485,18.95L18.944,22.483C18.886,22.541 18.817,22.587 18.741,22.618C18.666,22.649 18.585,22.665 18.503,22.665L13.495,22.665C13.412,22.666 13.33,22.651 13.253,22.619C13.176,22.588 13.107,22.542 13.049,22.483L9.515,18.95C9.457,18.893 9.411,18.824 9.38,18.749C9.348,18.674 9.333,18.593 9.333,18.512L9.333,13.496C9.333,13.414 9.349,13.333 9.38,13.258C9.411,13.182 9.457,13.113 9.515,13.056L13.049,9.514C13.107,9.456 13.177,9.411 13.254,9.38C13.33,9.35 13.412,9.334 13.495,9.335L18.762,9.335L22.485,13.056C22.6,13.174 22.665,13.332 22.664,13.496L22.664,18.504ZM15.987,18.667C15.854,18.666 15.725,18.705 15.615,18.778C15.505,18.851 15.419,18.956 15.368,19.078C15.317,19.2 15.303,19.334 15.329,19.464C15.355,19.594 15.418,19.713 15.512,19.806C15.605,19.9 15.725,19.964 15.854,19.989C15.984,20.015 16.119,20.002 16.241,19.951C16.363,19.9 16.467,19.814 16.54,19.704C16.613,19.593 16.652,19.464 16.652,19.332C16.652,19.158 16.584,18.99 16.462,18.866C16.34,18.742 16.174,18.67 16,18.667L15.987,18.667ZM15.987,11.99C15.899,11.99 15.812,12.007 15.731,12.04C15.65,12.073 15.577,12.122 15.515,12.184C15.453,12.246 15.403,12.319 15.37,12.4C15.336,12.481 15.319,12.567 15.319,12.655L15.319,17.331C15.319,17.508 15.389,17.678 15.515,17.803C15.64,17.929 15.81,17.999 15.987,17.999C16.164,17.999 16.334,17.929 16.459,17.803C16.584,17.678 16.654,17.508 16.654,17.331L16.654,12.666C16.654,12.492 16.585,12.325 16.462,12.202C16.34,12.079 16.174,12.008 16,12.006L15.987,11.99Z" style="fill:rgb(251,209,83);"/>
</svg>
